**harm	**harte	**timestamp	**phrase	**leadinstrument	**kern
*M4/4	*M4/4	*	*	*	*
*d:	*d:	*	*	*	*d:
1r;	N	0	.	r	1r;
=1	=1	=1	=1	=1	=1
*>A_intro	*>A_intro	*>A_intro	*>A_intro	*>A_intro	*>A_intro
1i	D:min	1.442	newline	guitar	1D 1f 1a
=2	=2	=2	=2	=2	=2
2.i	D:min	3.266	.	guitar	2D 2f 2a
4-VII	C:maj	4.634	.	guitar	4C 4e 4g
=3	=3	=3	=3	=3	=3
1-VI	B-:maj	5.09	.	guitar	1B-- 1dd- 1ff-
=4	=4	=4	=4	=4	=4
2.-VI	B-:maj	6.914	.	guitar	2B-- 2dd- 2ff-
4-VII	C:maj	8.282	.	guitar	4C 4e 4g
=5	=5	=5	=5	=5	=5
1i	D:min	8.738	newline	guitar	1D 1f 1a
=6	=6	=6	=6	=6	=6
2.i	D:min	10.585	.	guitar	2D 2f 2a
4-VII	C:maj	11.971	.	guitar	4C 4e 4g
=7	=7	=7	=7	=7	=7
1-VI	B-:maj	12.433	.	guitar	1B-- 1dd- 1ff-
=8	=8	=8	=8	=8	=8
1-VII	C:maj	14.281	.	guitar	1C 1e 1g
=9	=9	=9	=9	=9	=9
*>B_verse	*>B_verse	*>B_verse	*>B_verse	*>B_verse	*>B_verse
1i	D:min	16.129	newline	voice	1D 1f 1a
=10	=10	=10	=10	=10	=10
1-VI	B-:maj	17.989	.	voice	1B-- 1dd- 1ff-
=11	=11	=11	=11	=11	=11
1-III	F:maj	19.85	.	voice	1F- 1a- 1cc-
=12	=12	=12	=12	=12	=12
1IV	G:maj	21.71	.	voice	1G 1b 1dd
=13	=13	=13	=13	=13	=13
1i	D:min	23.571	newline	voice	1D 1f 1a
=14	=14	=14	=14	=14	=14
1-VI	B-:maj	25.413	.	voice	1B-- 1dd- 1ff-
=15	=15	=15	=15	=15	=15
1-III	F:maj	27.256	.	voice	1F- 1a- 1cc-
=16	=16	=16	=16	=16	=16
1IV	G:maj	29.099	.	voice	1G 1b 1dd
=17	=17	=17	=17	=17	=17
1i	D:min	30.942	newline	voice	1D 1f 1a
=18	=18	=18	=18	=18	=18
1i	D:min	32.762	.	voice	1D 1f 1a
=19	=19	=19	=19	=19	=19
1iv	G:min	34.583	.	voice	1G 1b- 1dd
=20	=20	=20	=20	=20	=20
1iv	G:min	36.404	.	voice	1G 1b- 1dd
=21	=21	=21	=21	=21	=21
1i	D:min	38.224	newline	voice	1D 1f 1a
=22	=22	=22	=22	=22	=22
1i	D:min	40.072	.	voice	1D 1f 1a
=23	=23	=23	=23	=23	=23
1iv	G:min	41.92	.	voice	1G 1b- 1dd
=24	=24	=24	=24	=24	=24
1-VI	B-:maj	43.768	.	voice	1B-- 1dd- 1ff-
=25	=25	=25	=25	=25	=25
*>C_chorus	*>C_chorus	*>C_chorus	*>C_chorus	*>C_chorus	*>C_chorus
1-VII	C:maj	45.616	newline	voice	1C 1e 1g
=26	=26	=26	=26	=26	=26
1i	D:min	47.465	.	voice	1D 1f 1a
=27	=27	=27	=27	=27	=27
1-VII	C:maj	49.314	.	voice	1C 1e 1g
=28	=28	=28	=28	=28	=28
1i	D:min	51.163	.	voice	1D 1f 1a
=29	=29	=29	=29	=29	=29
1-VII	C:maj	53.011	newline	voice	1C 1e 1g
=30	=30	=30	=30	=30	=30
1i	D:min	54.862	.	voice	1D 1f 1a
=31	=31	=31	=31	=31	=31
1-VI	B-:maj	56.713	.	voice	1B-- 1dd- 1ff-
=32	=32	=32	=32	=32	=32
1-VII	C:maj	58.564	.	voice	1C 1e 1g
=33	=33	=33	=33	=33	=33
1-VIId	C:maj/b7	60.414	newline	voice	1c 1e 1g
=34	=34	=34	=34	=34	=34
1-VIId	C:maj/b7	62.281	.	voice	1c 1e 1g
=35	=35	=35	=35	=35	=35
*>B_verse	*>B_verse	*>B_verse	*>B_verse	*>B_verse	*>B_verse
1i	D:min	64.147	newline	voice	1D 1f 1a
=36	=36	=36	=36	=36	=36
1-VI	B-:maj	66.014	.	voice	1B-- 1dd- 1ff-
=37	=37	=37	=37	=37	=37
1-III	F:maj	67.882	.	voice	1F- 1a- 1cc-
=38	=38	=38	=38	=38	=38
1IV	G:maj	69.749	.	voice	1G 1b 1dd
=39	=39	=39	=39	=39	=39
1i	D:min	71.616	newline	voice	1D 1f 1a
=40	=40	=40	=40	=40	=40
1-VI	B-:maj	73.455	.	voice	1B-- 1dd- 1ff-
=41	=41	=41	=41	=41	=41
1-III	F:maj	75.293	.	voice	1F- 1a- 1cc-
=42	=42	=42	=42	=42	=42
1IV	G:maj	77.132	.	voice	1G 1b 1dd
=43	=43	=43	=43	=43	=43
1i	D:min	78.971	newline	voice	1D 1f 1a
=44	=44	=44	=44	=44	=44
1i	D:min	80.789	.	voice	1D 1f 1a
=45	=45	=45	=45	=45	=45
1iv	G:min	82.607	.	voice	1G 1b- 1dd
=46	=46	=46	=46	=46	=46
1iv	G:min	84.425	.	voice	1G 1b- 1dd
=47	=47	=47	=47	=47	=47
1i	D:min	86.242	newline	voice	1D 1f 1a
=48	=48	=48	=48	=48	=48
1i	D:min	88.08	.	voice	1D 1f 1a
=49	=49	=49	=49	=49	=49
1iv	G:min	89.917	.	voice	1G 1b- 1dd
=50	=50	=50	=50	=50	=50
1-VI	B-:maj	91.754	.	voice	1B-- 1dd- 1ff-
=51	=51	=51	=51	=51	=51
*>C_chorus	*>C_chorus	*>C_chorus	*>C_chorus	*>C_chorus	*>C_chorus
1-VII	C:maj	93.591	newline	voice	1C 1e 1g
=52	=52	=52	=52	=52	=52
1i	D:min	95.438	.	voice	1D 1f 1a
=53	=53	=53	=53	=53	=53
1-VII	C:maj	97.284	.	voice	1C 1e 1g
=54	=54	=54	=54	=54	=54
1i	D:min	99.131	.	voice	1D 1f 1a
=55	=55	=55	=55	=55	=55
1-VII	C:maj	100.977	newline	voice	1C 1e 1g
=56	=56	=56	=56	=56	=56
1i	D:min	102.829	.	voice	1D 1f 1a
=57	=57	=57	=57	=57	=57
1-VI	B-:maj	104.68	.	voice	1B-- 1dd- 1ff-
=58	=58	=58	=58	=58	=58
1-VII	C:maj	106.532	.	voice	1C 1e 1g
=59	=59	=59	=59	=59	=59
1-VIId	C:maj/b7	108.383	newline	voice	1c 1e 1g
=60	=60	=60	=60	=60	=60
1-VIId	C:maj/b7	110.243	.	voice	1c 1e 1g
=61	=61	=61	=61	=61	=61
*>A_trans	*>A_trans	*>A_trans	*>A_trans	*>A_trans	*>A_trans
1i	D:min	112.102	newline	guitar	1D 1f 1a
=62	=62	=62	=62	=62	=62
2.i	D:min	113.968	.	guitar	2D 2f 2a
4-VII	C:maj	115.367	.	guitar	4C 4e 4g
=63	=63	=63	=63	=63	=63
1-VI	B-:maj	115.833	.	guitar	1B-- 1dd- 1ff-
=64	=64	=64	=64	=64	=64
2.-VI	B-:maj	117.698	.	guitar	2B-- 2dd- 2ff-
4-VII	C:maj	119.097	.	guitar	4C 4e 4g
=65	=65	=65	=65	=65	=65
1i	D:min	119.564	newline	guitar	1D 1f 1a
=66	=66	=66	=66	=66	=66
2.i	D:min	121.411	.	guitar	2D 2f 2a
4-VII	C:maj	122.797	.	guitar	4C 4e 4g
=67	=67	=67	=67	=67	=67
1-VI	B-:maj	123.259	.	guitar	1B-- 1dd- 1ff-
=68	=68	=68	=68	=68	=68
1-VII	C:maj	125.107	.	guitar	1C 1e 1g
=69	=69	=69	=69	=69	=69
*>A_solo	*>A_solo	*>A_solo	*>A_solo	*>A_solo	*>A_solo
1i	D:min	126.955	newline	harmonica	1D 1f 1a
=70	=70	=70	=70	=70	=70
1i	D:min	128.811	.	harmonica	1D 1f 1a
=71	=71	=71	=71	=71	=71
1iv	G:min	130.668	.	harmonica	1G 1b- 1dd
=72	=72	=72	=72	=72	=72
1iv	G:min	132.524	.	harmonica	1G 1b- 1dd
=73	=73	=73	=73	=73	=73
1i	D:min	134.381	newline	harmonica	1D 1f 1a
=74	=74	=74	=74	=74	=74
1i	D:min	136.222	.	harmonica	1D 1f 1a
=75	=75	=75	=75	=75	=75
1iv	G:min	138.063	.	harmonica	1G 1b- 1dd
=76	=76	=76	=76	=76	=76
1iv	G:min	139.904	.	harmonica	1G 1b- 1dd
=77	=77	=77	=77	=77	=77
1i	D:min	141.745	newline	harmonica	1D 1f 1a
=78	=78	=78	=78	=78	=78
1i	D:min	143.584	.	harmonica	1D 1f 1a
=79	=79	=79	=79	=79	=79
1iv	G:min	145.423	.	harmonica	1G 1b- 1dd
=80	=80	=80	=80	=80	=80
1iv	G:min	147.262	.	harmonica	1G 1b- 1dd
=81	=81	=81	=81	=81	=81
1i	D:min	149.101	newline	harmonica	1D 1f 1a
=82	=82	=82	=82	=82	=82
1i	D:min	150.964	.	harmonica	1D 1f 1a
=83	=83	=83	=83	=83	=83
1-VI	B-:maj	152.827	.	harmonica	1B-- 1dd- 1ff-
=84	=84	=84	=84	=84	=84
1-VI	B-:maj	154.69	.	harmonica	1B-- 1dd- 1ff-
=85	=85	=85	=85	=85	=85
*>C_chorus	*>C_chorus	*>C_chorus	*>C_chorus	*>C_chorus	*>C_chorus
1-VII	C:maj	156.553	newline	voice	1C 1e 1g
=86	=86	=86	=86	=86	=86
1i	D:min	158.414	.	voice	1D 1f 1a
=87	=87	=87	=87	=87	=87
1-VII	C:maj	160.275	.	voice	1C 1e 1g
=88	=88	=88	=88	=88	=88
1i	D:min	162.135	.	voice	1D 1f 1a
=89	=89	=89	=89	=89	=89
1-VII	C:maj	163.996	newline	voice	1C 1e 1g
=90	=90	=90	=90	=90	=90
1i	D:min	165.829	.	voice	1D 1f 1a
=91	=91	=91	=91	=91	=91
1-VI	B-:maj	167.663	.	voice	1B-- 1dd- 1ff-
=92	=92	=92	=92	=92	=92
1-VII	C:maj	169.496	.	voice	1C 1e 1g
=93	=93	=93	=93	=93	=93
1-VIId	C:maj/b7	171.329	newline	voice	1c 1e 1g
=94	=94	=94	=94	=94	=94
1-VIId	C:maj/b7	173.202	.	voice	1c 1e 1g
=95	=95	=95	=95	=95	=95
*>A_trans	*>A_trans	*>A_trans	*>A_trans	*>A_trans	*>A_trans
1i	D:min	175.075	newline	guitar	1D 1f 1a
=96	=96	=96	=96	=96	=96
2.i	D:min	176.951	.	guitar	2D 2f 2a
4-VII	C:maj	178.358	.	guitar	4C 4e 4g
=97	=97	=97	=97	=97	=97
1-VI	B-:maj	178.827	.	guitar	1B-- 1dd- 1ff-
=98	=98	=98	=98	=98	=98
2.-VI	B-:maj	180.703	.	guitar	2B-- 2dd- 2ff-
4-VII	C:maj	182.11	.	guitar	4C 4e 4g
=99	=99	=99	=99	=99	=99
1i	D:min	182.579	newline	guitar	1D 1f 1a
=100	=100	=100	=100	=100	=100
2.i	D:min	184.45	.	guitar	2D 2f 2a
4-VII	C:maj	185.853	.	guitar	4C 4e 4g
=101	=101	=101	=101	=101	=101
1-VI	B-:maj	186.321	.	guitar	1B-- 1dd- 1ff-
=102	=102	=102	=102	=102	=102
2.-VI	B-:maj	188.192	.	guitar	2B-- 2dd- 2ff-
4-VII	C:maj	189.595	.	guitar	4C 4e 4g
=103	=103	=103	=103	=103	=103
*>A_solo	*>A_solo	*>A_solo	*>A_solo	*>A_solo	*>A_solo
1i	D:min	190.063	newline	guitar	1D 1f 1a
=104	=104	=104	=104	=104	=104
1i	D:min	191.892	.	guitar	1D 1f 1a
=105	=105	=105	=105	=105	=105
1-VI	B-:maj	193.722	.	guitar	1B-- 1dd- 1ff-
=106	=106	=106	=106	=106	=106
1-VI	B-:maj	195.552	.	guitar	1B-- 1dd- 1ff-
=107	=107	=107	=107	=107	=107
1i	D:min	197.382	newline	guitar	1D 1f 1a
=108	=108	=108	=108	=108	=108
1i	D:min	199.217	.	guitar	1D 1f 1a
=109	=109	=109	=109	=109	=109
1-VI	B-:maj	201.053	.	guitar	1B-- 1dd- 1ff-
=110	=110	=110	=110	=110	=110
1-VI	B-:maj	202.889	.	guitar	1B-- 1dd- 1ff-
=111	=111	=111	=111	=111	=111
1i	D:min	204.725	newline	guitar	1D 1f 1a
=112	=112	=112	=112	=112	=112
1i	D:min	206.57	.	guitar	1D 1f 1a
=113	=113	=113	=113	=113	=113
1-VI	B-:maj	208.415	.	guitar	1B-- 1dd- 1ff-
=114	=114	=114	=114	=114	=114
1-VI	B-:maj	210.261	.	guitar	1B-- 1dd- 1ff-
=115	=115	=115	=115	=115	=115
1i	D:min	212.106	newline	guitar	1D 1f 1a
=116	=116	=116	=116	=116	=116
1i	D:min	213.933	.	guitar	1D 1f 1a
=117	=117	=117	=117	=117	=117
1-VI	B-:maj	215.76	.	guitar	1B-- 1dd- 1ff-
=118	=118	=118	=118	=118	=118
1-VI	B-:maj	217.587	.	guitar	1B-- 1dd- 1ff-
=119	=119	=119	=119	=119	=119
1i	D:min	219.414	newline	guitar	1D 1f 1a
=120	=120	=120	=120	=120	=120
1i	D:min	221.256	.	guitar	1D 1f 1a
=121	=121	=121	=121	=121	=121
1-VI	B-:maj	223.099	.	guitar	1B-- 1dd- 1ff-
=122	=122	=122	=122	=122	=122
1-VI	B-:maj	224.941	.	guitar	1B-- 1dd- 1ff-
=123	=123	=123	=123	=123	=123
1i	D:min	226.783	newline	guitar	1D 1f 1a
=124	=124	=124	=124	=124	=124
1i	D:min	228.621	.	guitar	1D 1f 1a
=125	=125	=125	=125	=125	=125
1-VI	B-:maj	230.458	.	guitar	1B-- 1dd- 1ff-
=126	=126	=126	=126	=126	=126
1-VI	B-:maj	232.295	.	guitar	1B-- 1dd- 1ff-
=127	=127	=127	=127	=127	=127
1i	D:min	234.133	newline	guitar	1D 1f 1a
=128	=128	=128	=128	=128	=128
1i	D:min	235.964	.	guitar	1D 1f 1a
=129	=129	=129	=129	=129	=129
1-VI	B-:maj	237.795	.	guitar	1B-- 1dd- 1ff-
=130	=130	=130	=130	=130	=130
1-VI	B-:maj	239.625	.	guitar	1B-- 1dd- 1ff-
=131	=131	=131	=131	=131	=131
*>_fadeout	*>_fadeout	*>_fadeout	*>_fadeout	*>_fadeout	*>_fadeout
1i	D:min	241.456	newline	guitar	1D 1f 1a
=132	=132	=132	=132	=132	=132
1i	D:min	243.304	.	guitar	1D 1f 1a
=133	=133	=133	=133	=133	=133
1-VI	B-:maj	245.151	.	guitar	1B-- 1dd- 1ff-
=134	=134	=134	=134	=134	=134
1-VI	B-:maj	246.999	.	guitar	1B-- 1dd- 1ff-
=135	=135	=135	=135	=135	=135
1i	D:min	248.846	newline	guitar	1D 1f 1a
=136	=136	=136	=136	=136	=136
1i	D:min	250.468	.	guitar	1D 1f 1a
=137	=137	=137	=137	=137	=137
1-VI	B-:maj	252.09	.	guitar	1B-- 1dd- 1ff-
=138	=138	=138	=138	=138	=138
1-VI	B-:maj	253.712	.	guitar	1B-- 1dd- 1ff-
=139	=139	=139	=139	=139	=139
1i	D:min	255.334	.	guitar	1D 1f 1a
=140	=140	=140	=140	=140	=140
1i	D:min	256.956	.	guitar	1D 1f 1a
1r;	N	258.577	.	r	1r;
1r;	N	263.889	.	r	1r;
*-	*-	*-	*-	*-	*-
!!!OTL: One Last Kiss
!!!COC: The J. Geils Band
!!!BillboardChartDate: 1978/12/02
!!!BillboardPeak: 35
!!!BillboardWeeksOnChart: 13
!!!SampleTargetRank: 65
!!!SampleActualRank: 65
!!!SampleID#: 0478
!!!RDF**harmony: **recip + pitch class of root + harmonic quality
!!!RDF**harte: Chris Harte's syntax, used by MIREX
!!!RDF**phrase: newline = linebreak in original McGill transcription
!!!RDF**timestamp: McGill audio timestamp in seconds
!!!RDF**leadinstrument: original McGill primary instrumentation annotation
!!!RDT: 2017/01/12/
!!!ENC: Nathaniel Condit-Schultz
!!!EST: Awating manual error checking and editing.
